!!!SOCIAL_FUNCTION:	miscellaneous songs
!!!PDT:	1943
!!!OTL: No_90_Song_of_a_Hunter.krn
!!!REG: British Columbia
**kern	**kern
*staff2	*staff1
=1-	=1-
=	=
*clefF4	*clefF4
*k[f#c#g#d#]	*k[f#c#g#d#]
*M2/4	*M2/4
4GG#/	8B\L
.	8B\J
4GG#/	8.B\L
.	16B\Jk
=2	=2
4GG#/	4B\
4GG#/	4G#\
=3	=3
4GG#/	4B\
4GG#/	4r
=4	=4
2r	8c#\L
.	8c#\J
.	8.c#\L
.	16c#\Jk
=5	=5
2r	4c#\
.	4B\
=6	=6
2r	4.G#\
.	8r
=7	=7
2r	8G#\L
.	8G#\J
.	8.G#\L
.	16G#\Jk
=8	=8
2r	4G#\
.	4F#\
=9	=9
2r	4.E\
.	8r
=10	=10
2r	8E\L
.	8E\J
.	8.E\L
.	16E\Jk
=11	=11
2r	4E\
.	4C#/
=12	=12
2r	4.C#/
.	8r
=13	=13
2r	8E/L
.	8C#/J
.	8.BB/L
.	16BB/Jk
=14	=14
2r	4BB/
.	4BB/
=15	=15
2r	2BB/
==:|!	==:|!
*-	*-
